X:1
T:Menuet in D minor
T:BWV Anh. 132
T: Notenbüchlein für Anna Magdalena Bach Johann Sebastian Bach (1685 - 1750)
%%score { 1 | 2 }
L:1/8
M:3/4
K:F
V:1 treble nm="Harpsichord, Klavier, rechte Hand" snm="Hch."
V:2 bass 
V:1
 A2 fed^c | d2 A2 B2 | ^CEGBAG | F2 EF D2 | F2 (BA) (dc) | Mf2 edcB | (AB/c/) F2 E2 |1 F6 :|2 F6 |: %9
 a2 Fagf | e/f/g c4 | f2 Dfed | (^c/d/e) A4 | A=B^cdef | ge^cb ag | (f/e/d) [Be]2 [E^c]2 |1 %16
 [Fd]6 :|2 [Fd]6 |] %18
V:2
 D,4 E,2 | F,4 G,2 | A,4 A,,2 | D,2 A,,2 D,,2 | D,2 C,2 B,,2 | A,,4 E,2 | F,2 A,,2 C,2 |1 %7
 F,,2 F,E,D,^C, :|2 F,2 C,2 F,,2 |: F,2 A,2 B,2 | C3 G,E,C, | D,2 C,2 B,,2 | A,,=B,,^C,D,E,F, | %13
 G,2 E,2 ^C,2 | A,,2 A,2 ^C2 | [DA]2 G,2 A,2 |1 D,2 D,,A,,D,E, :|2 D,2 A,,2 D,,2 |] %18

